!!!OTL: Iako roza miedzi kolacem glogiem
**kern
*staff1
=--
*clefC1
*k[]
1f
2a
2g
=-
2.f
4g
2a
2a
=-
2g
1f
2e
1f
!!linebreak:original
=-:|!
2.e
4e
2e
2e
=-
2f
2d
1d
=-
2d
1c
2B
=-
1c
1c
=-
4d
4e
1f
2e
=-
0f
=-=
*-
!!title: @{OTL}, @{GTL}, ed. @{ENC}
!!!pag:
!!!GTL: Hymnbook C
!!!EFL: 
!!!YEM: Creative Commons CC/BY/NC/SA 4.0
!!!ENC: Marcin Konik
!!!END: 2015-0m-dd
!!!EED: Marcin Konik
!!!EEV: 
!!!ONB: Encoded in vim by Marcin Konik
!!!CharacterEncoding: utf-8
!!!RDF**kern: l=long note in original notation
!!!RDF**kern: i=editorial accidental
!!muse2ps: z14jc180F
!!!COM: Anonim
!!!CDT: [?]
!!!TXO: Polish
!!!ODT: 
!!!GTL: Hymnbook C
!!!ARL: Opactwo św. Wojciecha, Staniątki 
!!!voices:	1
